X: 11913
T: Emmett's Hedgehog
R: jig
M: 6/8
K: Adorian
|:A2e edB|ABA AGE|ABA AGE|~G3 DEG|
A2e edB|ABA AGE|~G3 DEG|1 BAG AEG:|2 BAG ABd||
|:e2a ged|~c3 BAG|~B3 BAG|g2f edB|
e2a ged|~c3 BAG|Bge dBG|1 EFG ABd:|2 EFG AEG||

